X:1
T:Slängpolska efter Johan Jacob Bruun
C:Johan Jacob Bruun
R:Polska
Z:Jesper Brunholm, 2016-09-28
O:Särslöv, Skåne
M:3/4
L:1/16
K:C
|: c2>d2 (ef)ge f2e2 | e2a2 (ag)ag f2e2 | c2>d2 e2eg f2f2 | e2e2 c4 A4 :|
|: (AB)cB (AB)cB (AB)cd | (ef)ge f4 e4 | (AB)cB (AB)cB (AB)cd | (ef)ge f4 e4 |
 e2ag a2ag e2e2 | g2>e2 (gf)ed c2Bc | d2ef e2e2 d2B2 | c2A2 B2cB A4 :|

